X:5
T:Polonesse ur Hans Nielsen Balteruds notbok
B:Hans Nielsen Balteruds notebok, polonäs nr 5 sid 65
R:Slängpolska
S:efter Hans Nielsen Balterud
Z:Nils L
O:Norge
M:3/4
L:1/16
K:F
f2F2A2F2c2F2 | d2c2 c4 c4 | f2F2A2F2c2F2 | d2c2 c4 c4 | f4 f2e2f2d2 | g4 g2f2g2e2 | 
a2g2f2e2d2c2 | B2d2 c4 c4 :: [K:Dm] c2g2g2c2c2B2 | B2A2 A8 | A2a2a2g2g2f2 | e2d2 ^c4 A4 | 
d2A2e2A2f2A2 | g2f2e2d2c2BA | d2A2e2A2f2A2 | g2f2e2d2c2BA | a2g2a2b2a2g2 | e2^c2 d4 D4 :|

